outputs/icons/editor/text_color_sharp.svg

<svg xmlns="http://www.w3.org/2000/svg" width="1200" height="1200" fill="none"><g clip-path="url(#a)"><path fill="#000" d="M100 1000h1000v200H100zm174.5-150h121L459 671h282.5l63 179h121l-263-700h-125zm221-280.5L597 280h6l101.5 289.5z"/></g><defs><clipPath id="a"><path fill="#fff" d="M0 0h1200v1200H0z"/></clipPath></defs></svg>

<svg width="1200" height="1200" viewBox="0 0 1200 1200" fill="none" xmlns="http://www.w3.org/2000/svg"><g clip-path="url(#clip0_125_1485)"><path d="M100 1000H1100V1200H100V1000ZM274.5 850H395.5L459 671H741.5L804.5 850H925.5L662.5 150H537.5L274.5 850ZM495.5 569.5L597 280H603L704.5 569.5H495.5Z" fill="black"/></g><defs><clipPath id="clip0_125_1485"><path width="24" fill="white" d="M0 0H1200V1200H0V0z"/></clipPath></defs></svg>
